X: 1
T: Morrison's Jig
R: jig
M: 6/8
L: 1/8
K: Edor
|:E3 EFE|EBB AFD|E3 EFE|AFD AFD|
E3 EFE|EBB AFD|DED DFA|dAF dAF:|
|:def gfe|dBA AFD|def gfe|dAF dAF|
def gfe|dBA Bcd|efe dBA|FAF dAF:|
